X:1
T:Horst-Wessel-Lied
T:Die Fahne Hoch
T:Horst Wessel
C:Horst Wessel
%%score { 1 | 2 }
L:1/8
Q:1/4=110
M:4/4
K:C
V:1 treble nm="Piano" snm="Pno."
V:2 bass 
V:1
"^\n" z2 G2 G2 F2 | E2 z2 z2 G2 | c2- cB A2- AG | G4 F4 | z2 F2 F2 E2 | D2 z2 z2 G2 | %6
 G2- GG A2 G2 | E4 z4 | z2 GG E2 G2 | c2- ce e2 e2 | d2 c2 B2 c2 | A4 A4 | z2 c2 d2 c2 | %13
 e4- e2 c2 | B2- BB A2 B2 | c8 |] %16
V:2
 C,2 G,2 G,,2 G,2 | C,2 [E,G,]2 G,,2 [E,G,]2 | C,2 [E,G,]2 G,,2 [E,G,]2 | D,2 G,2 G,,2 G,2 | %4
 D,2 G,2 G,,2 G,2 | D,2 G,2 G,,2 G,2 | D,2 G,2 G,,2 G,2 | C,2 [E,G,]2 G,,2 [E,G,]2 | %8
 C,2 G,2 C,2 G,2 | C,2 [E,G,]2 G,,2 [E,G,]2 | C,2 [E,G,]2 G,,2 [E,G,]2 | %11
 [F,,F,]2 [E,,E,]2 [D,,D,]2 [C,,C,]2 | [F,,F,]2 F,2 [A,C]2 F,2 | C,2 [E,G,]2 G,,2 [E,G,]2 | %14
 D,2 G,2 G,,2 G,2 | C,2 [E,G,]2 G,,2 [E,G,]2 |] %16

